X: 68
T: Kan guayuanr
%%abc-version 2.0
%%abcx-abcm2ps-target-version 5.9.1 (29 Sep 2008)
%%abc-creator hum2abc beta
%%abcx-conversion-date 2013/10/02 07:52:29
%%abc-edited-by Helmut Schaffrath
%%humdrum-veritas 3128117090
%%humdrum-veritas-data 3010624132
%%continueall 1
%%barnumbers 0
L: 1/8
M: 2/4
K: G
z d B d [I:setbarnb 1]| 
c BA2- | 
A d B d | 
B AG2- | 
G B ^A B | 
^G BA2 | 
A E A F | 
Ed3 | 
E D/ E/G2- | 
G B A B | 
G2D2 | 
E/ G/ E/ D/B,2 | 
B B/ A/ B B/ A/ | 
^G BA2 | 
G F E G | 
D EG2 | 
z D B, D | 
E D/ E/A2 | 
A E A F | 
ED3 |]  



